X: 82
T:Cwrw Da
T:Good Beer
M:9/8
L:1/8
Q:130
S:Cat's Claw
R:Slip Jig
A:Wales
Z:brian_martin12345@yahoo.com
K:D
A|defd2d ecA|defd2f age|defd2d ecA|Bcd edc d2:||!
e|fgaa2a agf|gabb2b bag|fgaa2a agf|d'c'b agf e2A|!
defd2f ecA|defd2f age|defd2d ecA|Bcd edcd2:||!
A|dAF dAF dBG|dAF dAF cAE|dAF dAF dcB|^ABc FBA B2:||
